public/image/alphabet/l.svg

<?xml version="1.0" encoding="utf-8"?>
<!-- Generator: Adobe Illustrator 23.0.6, SVG Export Plug-In . SVG Version: 6.00 Build 0)  -->
<svg version="1.1" id="Layer_1" xmlns="http://www.w3.org/2000/svg" xmlns:xlink="http://www.w3.org/1999/xlink" x="0px" y="0px"
	 viewBox="0 0 792 612" style="enable-background:new 0 0 792 612;" xml:space="preserve">
<style type="text/css">
	.st0{fill:none;stroke:#171717;stroke-width:0.1;stroke-miterlimit:10;}
	.st1{fill:#171717;}
	.st2{fill:none;stroke:#FFFFFF;stroke-width:0.1;stroke-miterlimit:10;}
	.st3{fill:#FFFFFF;}
</style>
<g>
	<path id="path1014" class="st0" d="M392,147.2c10.4-3.5,26.2-3.1,29.4,9.9c9.3,32.8,8.5,67.4,12.9,101c2.6,21.2,3.7,42.5,5.9,63.7
		c27.7-6.8,48.8-31.5,78.7-30.4c10.9-0.3,19.8,7.8,21,18.5c-9,6.1-20,9.4-27.5,17.5c-16.8,18.4-42.1,26.2-57.9,45.7
		c-12.4,15-29.5,24.7-47,32.6c-16,7.4-13.3,28.7-22.2,41.2c-14.9,9-31.1,18.5-49.1,18c-15-3.5-27.5-13.2-40.5-21.1
		c-0.1-14.7,8.2-27.9,9-42.4c-0.9-37.5-17.2-75.4-6-112.7c5.1-17.1,28-9.6,36.5-22.9c14.3-18.4,40-14.2,59-24.6
		c1-12.8-2.4-26.7,1.7-38.6l2.1-0.1c1.2,5.2,1.7,10.5,1.6,16c8.5,0.1,17,0.3,25.5,0.8c-0.1-9.3-0.8-18.6-2.3-27.8
		c-10.4-2.6-21.5-3.3-27.1,7.3c-1.9-7.6-3.4-17.2,0.3-24.1c3,2.8,5.3,6.2,6.9,10.2c6.2-0.3,12.4-0.4,18.6-0.2
		c-0.2-14.1-4.7-39.5-24.5-33.6c-0.7,6.4-0.7,13-2.5,19.3C389.6,164.1,392.3,154.7,392,147.2z"/>
	<path id="path1016" class="st1" d="M392,147.2c10.4-3.5,26.2-3.1,29.4,9.9c9.3,32.8,8.5,67.4,12.9,101c2.6,21.2,3.7,42.5,5.9,63.7
		c27.7-6.8,48.8-31.5,78.7-30.4c10.9-0.3,19.8,7.8,21,18.5c-9,6.1-20,9.4-27.5,17.5c-16.8,18.4-42.1,26.2-57.9,45.7
		c-12.4,15-29.5,24.7-47,32.6c-16,7.4-13.3,28.7-22.2,41.2c-14.9,9-31.1,18.5-49.1,18c-15-3.5-27.5-13.2-40.5-21.1
		c-0.1-14.7,8.2-27.9,9-42.4c-0.9-37.5-17.2-75.4-6-112.7c5.1-17.1,28-9.6,36.5-22.9c14.3-18.4,40-14.2,59-24.6
		c1-12.8-2.4-26.7,1.7-38.6l2.1-0.1c1.2,5.2,1.7,10.5,1.6,16c8.5,0.1,17,0.3,25.5,0.8c-0.1-9.3-0.8-18.6-2.3-27.8
		c-10.4-2.6-21.5-3.3-27.1,7.3c-1.9-7.6-3.4-17.2,0.3-24.1c3,2.8,5.3,6.2,6.9,10.2c6.2-0.3,12.4-0.4,18.6-0.2
		c-0.2-14.1-4.7-39.5-24.5-33.6c-0.7,6.4-0.7,13-2.5,19.3C389.6,164.1,392.3,154.7,392,147.2z"/>
	<path id="path1042" class="st2" d="M399.1,226c8-2.7,16.3-1.8,24.4,0.1c1.9,9.1,3.6,18.4,3.7,27.8
		C410.8,256.6,396.5,242.4,399.1,226z"/>
	<path id="path1044" class="st3" d="M399.1,226c8-2.7,16.3-1.8,24.4,0.1c1.9,9.1,3.6,18.4,3.7,27.8
		C410.8,256.6,396.5,242.4,399.1,226z"/>
	<path id="path1062" class="st2" d="M374.3,258.6c3.4-10,15.8-10.6,24.5-12.6c3,5.4,7.1,10.5,8.5,16.7c-2.3,14.6-6.7,29-7.3,43.9
		c-7.8-0.4-15.6,0.3-23.2,1.9C376.7,291.8,375.1,275.2,374.3,258.6z"/>
	<path id="path1064" class="st3" d="M374.3,258.6c3.4-10,15.8-10.6,24.5-12.6c3,5.4,7.1,10.5,8.5,16.7c-2.3,14.6-6.7,29-7.3,43.9
		c-7.8-0.4-15.6,0.3-23.2,1.9C376.7,291.8,375.1,275.2,374.3,258.6z"/>
	<path id="path1086" class="st2" d="M342.8,278.3c-1.5-14,11.6-25.7,25.4-22.5c0.9,17,2.1,33.9,1.7,51c-5.6,2.1-11.3,4.1-16.3,7.4
		c6,0.4,12.1,0.7,18.1,0.7c-0.3,2.1-0.9,6.4-1.2,8.5c-4.6,2.4-14.3,2.6-10.6,10.2c3.2,0.4,9.5,1.1,12.6,1.5
		c-2.5,9.6-16.1,4.3-17.6-3.3C350.4,314.1,345.9,296.3,342.8,278.3z"/>
	<path id="path1088" class="st3" d="M342.8,278.3c-1.5-14,11.6-25.7,25.4-22.5c0.9,17,2.1,33.9,1.7,51c-5.6,2.1-11.3,4.1-16.3,7.4
		c6,0.4,12.1,0.7,18.1,0.7c-0.3,2.1-0.9,6.4-1.2,8.5c-4.6,2.4-14.3,2.6-10.6,10.2c3.2,0.4,9.5,1.1,12.6,1.5
		c-2.5,9.6-16.1,4.3-17.6-3.3C350.4,314.1,345.9,296.3,342.8,278.3z"/>
	<path id="path1090" class="st2" d="M414.8,258.8c4.2,0.9,8.5,1.9,12.8,2.8c1.4,17.2,3.3,34.3,4.2,51.5c-2.2-0.6-6.7-1.8-8.9-2.4
		c1.4,3.9,2.8,7.9,4.2,11.8c-4.7-1.3-9.4-2.7-14.1-4.2c0.3,2.5,1,7.4,1.3,9.9c-1.7-0.4-5-1.1-6.7-1.5c-0.5-10.4-0.1-20.8,0-31.2
		c5-3,9.9-5.9,14.9-8.9c-1.2-4.6-2.2-9.2-3-13.8c-2,1.2-6,3.7-8,4.9C412.8,271.4,413.9,265.1,414.8,258.8z"/>
	<path id="path1092" class="st3" d="M414.8,258.8c4.2,0.9,8.5,1.9,12.8,2.8c1.4,17.2,3.3,34.3,4.2,51.5c-2.2-0.6-6.7-1.8-8.9-2.4
		c1.4,3.9,2.8,7.9,4.2,11.8c-4.7-1.3-9.4-2.7-14.1-4.2c0.3,2.5,1,7.4,1.3,9.9c-1.7-0.4-5-1.1-6.7-1.5c-0.5-10.4-0.1-20.8,0-31.2
		c5-3,9.9-5.9,14.9-8.9c-1.2-4.6-2.2-9.2-3-13.8c-2,1.2-6,3.7-8,4.9C412.8,271.4,413.9,265.1,414.8,258.8z"/>
	<path id="path1126" class="st2" d="M305.5,285.2c10.6-1.5,20-7.2,30.4-9.5c5.1,14.9,8.2,30.4,10.9,46c-3.6,4.6-7,9.3-10.4,14
		c-7.4-14.4-9.3-31.6-20.7-43.8c-1.2,4.8-2.2,9.6-3,14.5c-4-1.8-7.9-3.6-11.8-5.3C302.4,295.7,303.9,290.4,305.5,285.2z"/>
	<path id="path1128" class="st3" d="M305.5,285.2c10.6-1.5,20-7.2,30.4-9.5c5.1,14.9,8.2,30.4,10.9,46c-3.6,4.6-7,9.3-10.4,14
		c-7.4-14.4-9.3-31.6-20.7-43.8c-1.2,4.8-2.2,9.6-3,14.5c-4-1.8-7.9-3.6-11.8-5.3C302.4,295.7,303.9,290.4,305.5,285.2z"/>
	<path id="path1158" class="st2" d="M482.5,306.7c11.1-6,23.4-10.5,36.3-9.1c5,0.7,13.1,0,11.5,7.5c-26.3,18.7-50.4,40.2-77.9,57.3
		c-4-11.1-7.7-22.4-8.9-34.2c13.8-5.6,28.5-18.8,43.8-9.9C485.6,314.4,484,310.6,482.5,306.7z"/>
	<path id="path1160" class="st3" d="M482.5,306.7c11.1-6,23.4-10.5,36.3-9.1c5,0.7,13.1,0,11.5,7.5c-26.3,18.7-50.4,40.2-77.9,57.3
		c-4-11.1-7.7-22.4-8.9-34.2c13.8-5.6,28.5-18.8,43.8-9.9C485.6,314.4,484,310.6,482.5,306.7z"/>
	<path id="path1202" class="st2" d="M300.3,310.7c7,0.7,14.1,1.2,21.2,1.8c4.7,9.8,4.8,23.8,15.3,29.4c9.5,1.1,18.7,3.7,27,8.7
		c-1.6,10.6-3,21.3-2.9,32.1c1.8-0.9,5.4-2.7,7.2-3.6c-0.2-11.3,2.8-22.3,7.8-32.4c7.4-0.2,15.1,0.9,22.4-1.3
		c5.5-3.2,8.2-9.3,11.7-14.4c7.5-0.7,15.1-0.9,22.7,0.4c1,6.9,1.8,13.9,3.1,20.9c4.3,5.2,16.1,7.6,11.9,16.6
		c-10.7,19.1-33.5,25.7-53.1,31.5c-13,4.8-19.6-11.2-30.1-14.4c-1.7,3.1-3.3,6.3-4.8,9.6c-12.3-4.3-23.2,6-35.5,5.1
		c-5.7-0.4-13.9-1.5-14.1-8.7C304.9,365.3,302.1,338,300.3,310.7z"/>
	<path id="path1204" class="st3" d="M300.3,310.7c7,0.7,14.1,1.2,21.2,1.8c4.7,9.8,4.8,23.8,15.3,29.4c9.5,1.1,18.7,3.7,27,8.7
		c-1.6,10.6-3,21.3-2.9,32.1c1.8-0.9,5.4-2.7,7.2-3.6c-0.2-11.3,2.8-22.3,7.8-32.4c7.4-0.2,15.1,0.9,22.4-1.3
		c5.5-3.2,8.2-9.3,11.7-14.4c7.5-0.7,15.1-0.9,22.7,0.4c1,6.9,1.8,13.9,3.1,20.9c4.3,5.2,16.1,7.6,11.9,16.6
		c-10.7,19.1-33.5,25.7-53.1,31.5c-13,4.8-19.6-11.2-30.1-14.4c-1.7,3.1-3.3,6.3-4.8,9.6c-12.3-4.3-23.2,6-35.5,5.1
		c-5.7-0.4-13.9-1.5-14.1-8.7C304.9,365.3,302.1,338,300.3,310.7z"/>
	<path id="path1206" class="st2" d="M376.3,311.8c8.4-0.1,16.8-1.2,25.1-3.3c0.3,6.5,0.6,13,0.8,19.6c-7.2-6.4-15.8-8.8-25.2-6.8
		C376.8,318.9,376.5,314.2,376.3,311.8z"/>
	<path id="path1208" class="st3" d="M376.3,311.8c8.4-0.1,16.8-1.2,25.1-3.3c0.3,6.5,0.6,13,0.8,19.6c-7.2-6.4-15.8-8.8-25.2-6.8
		C376.8,318.9,376.5,314.2,376.3,311.8z"/>
	<path id="path1258" class="st2" d="M381.6,331.1c3.8-5,15.2,0.3,10.4,6.3C387.9,342.1,377,337.3,381.6,331.1z"/>
	<path id="path1260" class="st3" d="M381.6,331.1c3.8-5,15.2,0.3,10.4,6.3C387.9,342.1,377,337.3,381.6,331.1z"/>
	<path id="path1342" class="st2" d="M351.5,455.1c1-17.4,6.6-34.2,15-49.4c3.6,2.5,7.2,5.1,10.9,7.6c-2.9,11.2-5.2,22.5-8.4,33.6
		C365.2,452.6,358,454.7,351.5,455.1z"/>
	<path id="path1344" class="st3" d="M351.5,455.1c1-17.4,6.6-34.2,15-49.4c3.6,2.5,7.2,5.1,10.9,7.6c-2.9,11.2-5.2,22.5-8.4,33.6
		C365.2,452.6,358,454.7,351.5,455.1z"/>
	<path id="path1350" class="st2" d="M309.8,414.5c11.8-0.6,23.6-2,35.2-4.3c-5,14.7-10.2,29.4-13.7,44.5c-10.3-3-19.4-8.7-28.4-14.3
		C305,431.8,307.5,423.2,309.8,414.5z"/>
	<path id="path1352" class="st3" d="M309.8,414.5c11.8-0.6,23.6-2,35.2-4.3c-5,14.7-10.2,29.4-13.7,44.5c-10.3-3-19.4-8.7-28.4-14.3
		C305,431.8,307.5,423.2,309.8,414.5z"/>
	<path id="path1354" class="st2" d="M344,428.3c2.9-8.3,4-18.7,13.9-21.7c-2.1,9.2-4.8,18.2-7.4,27.3
		C348.8,432.5,345.6,429.7,344,428.3z"/>
	<path id="path1356" class="st3" d="M344,428.3c2.9-8.3,4-18.7,13.9-21.7c-2.1,9.2-4.8,18.2-7.4,27.3
		C348.8,432.5,345.6,429.7,344,428.3z"/>
</g>
</svg>

<svg width="792" height="612" viewBox="0 0 792 612" fill="none" xmlns="http://www.w3.org/2000/svg">
<path d="M397.5 191.795C409 188 415.5 187.5 423.707 191.795C425.607 200.895 427.307 210.195 427.407 219.595C385 227.5 394.9 208.195 397.5 191.795Z" fill="white"/>
<path d="M422 185C414.079 187.925 397.719 188 394.5 174.5C392.344 165.457 395.958 161.131 395.593 151.738C416 142.5 424.136 168.533 422 185Z" fill="white"/>
<path d="M392 147.2C402.4 143.7 418.2 144.1 421.4 157.1C430.7 189.9 429.9 224.5 434.3 258.1C436.9 279.3 438 300.6 440.2 321.8C467.9 315 489 290.3 518.9 291.4C529.8 291.1 538.7 299.2 539.9 309.9C530.9 316 519.9 319.3 512.4 327.4C495.6 345.8 470.3 353.6 454.5 373.1C442.1 388.1 425 397.8 407.5 405.7C391.5 413.1 394.2 434.4 385.3 446.9C370.4 455.9 354.2 465.4 336.2 464.9C321.2 461.4 308.7 451.7 295.7 443.8C295.6 429.1 303.9 415.9 304.7 401.4C303.8 363.9 287.5 326 298.7 288.7C303.8 271.6 326.7 279.1 335.2 265.8C349.5 247.4 375.2 251.6 394.2 241.2C395.2 228.4 391.8 214.5 395.9 202.6L398 202.5C399.2 207.7 399.7 213 399.6 218.5C408.1 218.6 416.6 218.8 425.1 219.3C425 210 424.3 200.7 422.8 191.5C412.4 188.9 401.3 188.2 395.7 198.8C393.8 191.2 392.3 181.6 396 174.7C399 177.5 401.3 180.9 402.9 184.9C409.1 184.6 415.3 184.5 421.5 184.7C421.3 170.6 416.8 145.2 397 151.1C396.3 157.5 396.3 164.1 394.5 170.4C389.6 164.1 392.3 154.7 392 147.2Z" stroke="#171717" stroke-width="0.1" stroke-miterlimit="10"/>
<path d="M392 147.2C402.4 143.7 418.2 144.1 421.4 157.1C430.7 189.9 429.9 224.5 434.3 258.1C436.9 279.3 438 300.6 440.2 321.8C467.9 315 489 290.3 518.9 291.4C529.8 291.1 538.7 299.2 539.9 309.9C530.9 316 519.9 319.3 512.4 327.4C495.6 345.8 470.3 353.6 454.5 373.1C442.1 388.1 425 397.8 407.5 405.7C391.5 413.1 394.2 434.4 385.3 446.9C370.4 455.9 354.2 465.4 336.2 464.9C321.2 461.4 308.7 451.7 295.7 443.8C295.6 429.1 303.9 415.9 304.7 401.4C303.8 363.9 287.5 326 298.7 288.7C303.8 271.6 326.7 279.1 335.2 265.8C349.5 247.4 375.2 251.6 394.2 241.2C395.2 228.4 391.8 214.5 395.9 202.6L398 202.5C399.2 207.7 399.7 213 399.6 218.5C408.1 218.6 416.6 218.8 425.1 219.3C425 210 424.3 200.7 422.8 191.5C412.4 188.9 401.3 188.2 395.7 198.8C393.8 191.2 392.3 181.6 396 174.7C399 177.5 401.3 180.9 402.9 184.9C409.1 184.6 415.3 184.5 421.5 184.7C421.3 170.6 416.8 145.2 397 151.1C396.3 157.5 396.3 164.1 394.5 170.4C389.6 164.1 392.3 154.7 392 147.2Z" fill="#171717"/>
<path d="M399.1 226C407.1 223.3 415.4 224.2 423.5 226.1C425.4 235.2 427.1 244.5 427.2 253.9C410.8 256.6 396.5 242.4 399.1 226Z" stroke="white" stroke-width="0.1" stroke-miterlimit="10"/>
<path d="M399.1 226C407.1 223.3 415.4 224.2 423.5 226.1C425.4 235.2 427.1 244.5 427.2 253.9C410.8 256.6 396.5 242.4 399.1 226Z" fill="white"/>
<path d="M374.3 258.6C377.7 248.6 390.1 248 398.8 246C401.8 251.4 405.9 256.5 407.3 262.7C405 277.3 400.6 291.7 400 306.6C392.2 306.2 384.4 306.9 376.8 308.5C376.7 291.8 375.1 275.2 374.3 258.6Z" stroke="white" stroke-width="0.1" stroke-miterlimit="10"/>
<path d="M374.3 258.6C377.7 248.6 390.1 248 398.8 246C401.8 251.4 405.9 256.5 407.3 262.7C405 277.3 400.6 291.7 400 306.6C392.2 306.2 384.4 306.9 376.8 308.5C376.7 291.8 375.1 275.2 374.3 258.6Z" fill="white"/>
<path d="M342.8 278.3C341.3 264.3 354.4 252.6 368.2 255.8C369.1 272.8 370.3 289.7 369.9 306.8C364.3 308.9 358.6 310.9 353.6 314.2C359.6 314.6 365.7 314.9 371.7 314.9C371.4 317 370.8 321.3 370.5 323.4C365.9 325.8 356.2 326 359.9 333.6C363.1 334 369.4 334.7 372.5 335.1C370 344.7 356.4 339.4 354.9 331.8C350.4 314.1 345.9 296.3 342.8 278.3Z" stroke="white" stroke-width="0.1" stroke-miterlimit="10"/>
<path d="M342.8 278.3C341.3 264.3 354.4 252.6 368.2 255.8C369.1 272.8 370.3 289.7 369.9 306.8C364.3 308.9 358.6 310.9 353.6 314.2C359.6 314.6 365.7 314.9 371.7 314.9C371.4 317 370.8 321.3 370.5 323.4C365.9 325.8 356.2 326 359.9 333.6C363.1 334 369.4 334.7 372.5 335.1C370 344.7 356.4 339.4 354.9 331.8C350.4 314.1 345.9 296.3 342.8 278.3Z" fill="white"/>
<path d="M414.8 258.8C419 259.7 423.3 260.7 427.6 261.6C429 278.8 430.9 295.9 431.8 313.1C429.6 312.5 425.1 311.3 422.9 310.7C424.3 314.6 425.7 318.6 427.1 322.5C422.4 321.2 417.7 319.8 413 318.3C413.3 320.8 414 325.7 414.3 328.2C412.6 327.8 409.3 327.1 407.6 326.7C407.1 316.3 407.5 305.9 407.6 295.5C412.6 292.5 417.5 289.6 422.5 286.6C421.3 282 420.3 277.4 419.5 272.8C417.5 274 413.5 276.5 411.5 277.7C412.8 271.4 413.9 265.1 414.8 258.8Z" stroke="white" stroke-width="0.1" stroke-miterlimit="10"/>
<path d="M414.8 258.8C419 259.7 423.3 260.7 427.6 261.6C429 278.8 430.9 295.9 431.8 313.1C429.6 312.5 425.1 311.3 422.9 310.7C424.3 314.6 425.7 318.6 427.1 322.5C422.4 321.2 417.7 319.8 413 318.3C413.3 320.8 414 325.7 414.3 328.2C412.6 327.8 409.3 327.1 407.6 326.7C407.1 316.3 407.5 305.9 407.6 295.5C412.6 292.5 417.5 289.6 422.5 286.6C421.3 282 420.3 277.4 419.5 272.8C417.5 274 413.5 276.5 411.5 277.7C412.8 271.4 413.9 265.1 414.8 258.8Z" fill="white"/>
<path d="M305.5 285.2C316.1 283.7 325.5 278 335.9 275.7C341 290.6 344.1 306.1 346.8 321.7C343.2 326.3 339.8 331 336.4 335.7C329 321.3 327.1 304.1 315.7 291.9C314.5 296.7 313.5 301.5 312.7 306.4C308.7 304.6 304.8 302.8 300.9 301.1C302.4 295.7 303.9 290.4 305.5 285.2Z" stroke="white" stroke-width="0.1" stroke-miterlimit="10"/>
<path d="M305.5 285.2C316.1 283.7 325.5 278 335.9 275.7C341 290.6 344.1 306.1 346.8 321.7C343.2 326.3 339.8 331 336.4 335.7C329 321.3 327.1 304.1 315.7 291.9C314.5 296.7 313.5 301.5 312.7 306.4C308.7 304.6 304.8 302.8 300.9 301.1C302.4 295.7 303.9 290.4 305.5 285.2Z" fill="white"/>
<path d="M482.5 306.7C493.6 300.7 505.9 296.2 518.8 297.6C523.8 298.3 531.9 297.6 530.3 305.1C504 323.8 479.9 345.3 452.4 362.4C448.4 351.3 444.7 340 443.5 328.2C457.3 322.6 472 309.4 487.3 318.3C485.6 314.4 484 310.6 482.5 306.7Z" stroke="white" stroke-width="0.1" stroke-miterlimit="10"/>
<path d="M482.5 306.7C493.6 300.7 505.9 296.2 518.8 297.6C523.8 298.3 531.9 297.6 530.3 305.1C504 323.8 479.9 345.3 452.4 362.4C448.4 351.3 444.7 340 443.5 328.2C457.3 322.6 472 309.4 487.3 318.3C485.6 314.4 484 310.6 482.5 306.7Z" fill="white"/>
<path d="M300.3 310.7C307.3 311.4 314.4 311.9 321.5 312.5C326.2 322.3 326.3 336.3 336.8 341.9C346.3 343 355.5 345.6 363.8 350.6C362.2 361.2 360.8 371.9 360.9 382.7C362.7 381.8 366.3 380 368.1 379.1C367.9 367.8 370.9 356.8 375.9 346.7C383.3 346.5 391 347.6 398.3 345.4C403.8 342.2 406.5 336.1 410 331C417.5 330.3 425.1 330.1 432.7 331.4C433.7 338.3 434.5 345.3 435.8 352.3C440.1 357.5 451.9 359.9 447.7 368.9C437 388 414.2 394.6 394.6 400.4C381.6 405.2 375 389.2 364.5 386C362.8 389.1 361.2 392.3 359.7 395.6C347.4 391.3 336.5 401.6 324.2 400.7C318.5 400.3 310.3 399.2 310.1 392C304.9 365.3 302.1 338 300.3 310.7Z" stroke="white" stroke-width="0.1" stroke-miterlimit="10"/>
<path d="M300.3 310.7C307.3 311.4 314.4 311.9 321.5 312.5C326.2 322.3 326.3 336.3 336.8 341.9C346.3 343 355.5 345.6 363.8 350.6C362.2 361.2 360.8 371.9 360.9 382.7C362.7 381.8 366.3 380 368.1 379.1C367.9 367.8 370.9 356.8 375.9 346.7C383.3 346.5 391 347.6 398.3 345.4C403.8 342.2 406.5 336.1 410 331C417.5 330.3 425.1 330.1 432.7 331.4C433.7 338.3 434.5 345.3 435.8 352.3C440.1 357.5 451.9 359.9 447.7 368.9C437 388 414.2 394.6 394.6 400.4C381.6 405.2 375 389.2 364.5 386C362.8 389.1 361.2 392.3 359.7 395.6C347.4 391.3 336.5 401.6 324.2 400.7C318.5 400.3 310.3 399.2 310.1 392C304.9 365.3 302.1 338 300.3 310.7Z" fill="white"/>
<path d="M376.3 311.8C384.7 311.7 393.1 310.6 401.4 308.5C401.7 315 402 321.5 402.2 328.1C395 321.7 386.4 319.3 377 321.3C376.8 318.9 376.5 314.2 376.3 311.8Z" stroke="white" stroke-width="0.1" stroke-miterlimit="10"/>
<path d="M376.3 311.8C384.7 311.7 393.1 310.6 401.4 308.5C401.7 315 402 321.5 402.2 328.1C395 321.7 386.4 319.3 377 321.3C376.8 318.9 376.5 314.2 376.3 311.8Z" fill="white"/>
<path d="M381.6 331.1C385.4 326.1 396.8 331.4 392 337.4C387.9 342.1 377 337.3 381.6 331.1Z" stroke="white" stroke-width="0.1" stroke-miterlimit="10"/>
<path d="M381.6 331.1C385.4 326.1 396.8 331.4 392 337.4C387.9 342.1 377 337.3 381.6 331.1Z" fill="white"/>
<path d="M351.5 455.1C352.5 437.7 358.1 420.9 366.5 405.7C370.1 408.2 373.7 410.8 377.4 413.3C374.5 424.5 372.2 435.8 369 446.9C365.2 452.6 358 454.7 351.5 455.1Z" stroke="white" stroke-width="0.1" stroke-miterlimit="10"/>
<path d="M351.5 455.1C352.5 437.7 358.1 420.9 366.5 405.7C370.1 408.2 373.7 410.8 377.4 413.3C374.5 424.5 372.2 435.8 369 446.9C365.2 452.6 358 454.7 351.5 455.1Z" fill="white"/>
<path d="M309.8 414.5C321.6 413.9 333.4 412.5 345 410.2C340 424.9 334.8 439.6 331.3 454.7C321 451.7 311.9 446 302.9 440.4C305 431.8 307.5 423.2 309.8 414.5Z" stroke="white" stroke-width="0.1" stroke-miterlimit="10"/>
<path d="M309.8 414.5C321.6 413.9 333.4 412.5 345 410.2C340 424.9 334.8 439.6 331.3 454.7C321 451.7 311.9 446 302.9 440.4C305 431.8 307.5 423.2 309.8 414.5Z" fill="white"/>
<path d="M344 428.3C346.9 420 348 409.6 357.9 406.6C355.8 415.8 353.1 424.8 350.5 433.9C348.8 432.5 345.6 429.7 344 428.3Z" stroke="white" stroke-width="0.1" stroke-miterlimit="10"/>
<path d="M344 428.3C346.9 420 348 409.6 357.9 406.6C355.8 415.8 353.1 424.8 350.5 433.9C348.8 432.5 345.6 429.7 344 428.3Z" fill="white"/>
</svg>
